X: 24081
T: Long Island
R: reel
M: 4/4
K: Eminor
|:"Em"E2 GB cBGB|cBGB cBGB|"Em"E2 GB cBGB|"D"AFDF "Em"E3 E:|
|:"Em" eBeB "D"fAfA|"C"gBgB "B7"fAfA|"Em"eBeB "D"fAfA|"C"gBgB "B7"f4:|
"C"gcgc "B7"fAfA|"D"edBA "G"BAGB|"C"gcgc "B7"fAfA|"D"edBd "Em"e2 ef|
"C"gcgc "B7"fAfA|"D"edBA "G"BAGB|"C"gcgc "B7"fAfA|"D"edBA GFED||
|:"Em"E2 GE "D"F2 AF|"C"G2 BG "B7" A2 FD|"Em"E2 GE "D"F2 AF|"B7"B2 AF "Em"E4:|

